src/WeatherTwentyOne/Resources/Images/fluent_weather_sunny_low_20_filled.svg

<svg width="40" height="40" viewBox="0 0 40 40" fill="none" xmlns="http://www.w3.org/2000/svg">
<path d="M11.1498 21.9999C10.8612 20.6892 10.8664 19.3294 11.1649 18.0211C11.4634 16.7127 12.0476 15.4892 12.8744 14.441C13.7012 13.3928 14.7493 12.5468 15.9414 11.9654C17.1334 11.384 18.4389 11.0822 19.7612 11.0822C21.0836 11.0822 22.3891 11.384 23.5811 11.9654C24.7732 12.5468 25.8213 13.3928 26.6481 14.441C27.4749 15.4892 28.0591 16.7127 28.3576 18.0211C28.6561 19.3294 28.6613 20.6892 28.3727 21.9999H34.4615C34.7227 21.9999 34.9731 22.1053 35.1578 22.2928C35.3424 22.4803 35.4462 22.7347 35.4462 22.9999C35.4462 23.2651 35.3424 23.5195 35.1578 23.707C34.9731 23.8945 34.7227 23.9999 34.4615 23.9999H4.92309C4.66196 23.9999 4.41152 23.8945 4.22686 23.707C4.04221 23.5195 3.93848 23.2651 3.93848 22.9999C3.93848 22.7347 4.04221 22.4803 4.22686 22.2928C4.41152 22.1053 4.66196 21.9999 4.92309 21.9999H11.1498Z" fill="url(#paint0_linear)"/>
<path d="M19.9583 36C19.8156 36.0318 19.6677 36.0318 19.525 36H19.9583Z" fill="url(#paint1_linear)"/>
<path d="M9.99579 8.76393L9.85991 8.64793C9.65775 8.50531 9.41032 8.44477 9.16638 8.47825C8.92245 8.51172 8.69971 8.63677 8.54206 8.82876C8.3844 9.02075 8.30327 9.26575 8.31465 9.51548C8.32603 9.76521 8.4291 10.0015 8.60354 10.1779L10.2931 11.8939L10.431 12.0099C10.6332 12.1525 10.8806 12.2131 11.1245 12.1796C11.3685 12.1461 11.5912 12.0211 11.7488 11.8291C11.9065 11.6371 11.9876 11.3921 11.9763 11.1424C11.9649 10.8926 11.8618 10.6563 11.6874 10.4799L9.99579 8.76393Z" fill="url(#paint2_linear)"/>
<path d="M30.9939 10.04C31.1343 9.83463 31.1939 9.58334 31.1609 9.33559C31.128 9.08785 31.0048 8.86163 30.8158 8.70151C30.6268 8.54139 30.3855 8.45899 30.1396 8.47055C29.8938 8.48211 29.6611 8.58679 29.4874 8.76396L27.7958 10.48L27.6816 10.62C27.5434 10.8254 27.4856 11.0758 27.5195 11.3222C27.5533 11.5686 27.6763 11.7933 27.8646 11.9525C28.0528 12.1117 28.2927 12.1939 28.5375 12.1831C28.7822 12.1723 29.0142 12.0692 29.1881 11.894L30.8796 10.178L30.9939 10.038V10.04Z" fill="url(#paint3_linear)"/>
<path d="M20.7164 4.86994C20.6726 4.62404 20.5397 4.40373 20.3439 4.25238C20.1481 4.10103 19.9036 4.02961 19.6586 4.05219C19.4135 4.07477 19.1857 4.18971 19.0199 4.37437C18.8542 4.55904 18.7625 4.80005 18.7629 5.04994V7.47594L18.7787 7.65594C18.8225 7.90183 18.9554 8.12215 19.1512 8.2735C19.347 8.42485 19.5915 8.49627 19.8365 8.47369C20.0816 8.45111 20.3094 8.33617 20.4752 8.15151C20.6409 7.96684 20.7326 7.72583 20.7322 7.47594V5.04794L20.7164 4.86794V4.86994Z" fill="url(#paint4_linear)"/>
<path d="M16.7385 32C16.4774 32 16.2269 32.1054 16.0423 32.2929C15.8576 32.4804 15.7539 32.7348 15.7539 33C15.7539 33.2652 15.8576 33.5196 16.0423 33.7071C16.2269 33.8947 16.4774 34 16.7385 34H22.6462C22.9073 34 23.1578 33.8947 23.3424 33.7071C23.5271 33.5196 23.6308 33.2652 23.6308 33C23.6308 32.7348 23.5271 32.4804 23.3424 32.2929C23.1578 32.1054 22.9073 32 22.6462 32H16.7385Z" fill="url(#paint5_linear)"/>
<path d="M9.84619 28C9.84619 27.7348 9.94993 27.4804 10.1346 27.2929C10.3192 27.1054 10.5697 27 10.8308 27H28.5539C28.815 27 29.0655 27.1054 29.2501 27.2929C29.4348 27.4804 29.5385 27.7348 29.5385 28C29.5385 28.2652 29.4348 28.5196 29.2501 28.7071C29.0655 28.8946 28.815 29 28.5539 29H10.8308C10.5697 29 10.3192 28.8946 10.1346 28.7071C9.94993 28.5196 9.84619 28.2652 9.84619 28Z" fill="url(#paint6_linear)"/>
<defs>
<linearGradient id="paint0_linear" x1="9.31885" y1="13.4176" x2="14.8076" y2="25.9675" gradientUnits="userSpaceOnUse">
<stop offset="0.10243" stop-color="#28C2D1"/>
<stop offset="0.925347" stop-color="#4931DE"/>
</linearGradient>
<linearGradient id="paint1_linear" x1="19.599" y1="36.0043" x2="19.6006" y2="36.0318" gradientUnits="userSpaceOnUse">
<stop offset="0.10243" stop-color="#28C2D1"/>
<stop offset="0.925347" stop-color="#4931DE"/>
</linearGradient>
<linearGradient id="paint2_linear" x1="8.93923" y1="9.14168" x2="11.0847" y2="11.1228" gradientUnits="userSpaceOnUse">
<stop offset="0.10243" stop-color="#28C2D1"/>
<stop offset="0.925347" stop-color="#4931DE"/>
</linearGradient>
<linearGradient id="paint3_linear" x1="28.135" y1="9.14105" x2="30.2777" y2="11.1201" gradientUnits="userSpaceOnUse">
<stop offset="0.10243" stop-color="#28C2D1"/>
<stop offset="0.925347" stop-color="#4931DE"/>
</linearGradient>
<linearGradient id="paint4_linear" x1="19.0992" y1="4.84896" x2="20.9196" y2="5.60755" gradientUnits="userSpaceOnUse">
<stop offset="0.10243" stop-color="#28C2D1"/>
<stop offset="0.925347" stop-color="#4931DE"/>
</linearGradient>
<linearGradient id="paint5_linear" x1="17.099" y1="32.3616" x2="17.6831" y2="34.5181" gradientUnits="userSpaceOnUse">
<stop offset="0.10243" stop-color="#28C2D1"/>
<stop offset="0.925347" stop-color="#4931DE"/>
</linearGradient>
<linearGradient id="paint6_linear" x1="13.2089" y1="27.3616" x2="13.4568" y2="29.6494" gradientUnits="userSpaceOnUse">
<stop offset="0.10243" stop-color="#28C2D1"/>
<stop offset="0.925347" stop-color="#4931DE"/>
</linearGradient>
</defs>
</svg>

<svg width="40" height="40" fill="none" xmlns="http://www.w3.org/2000/svg">
    <path
        d="M11.15 22a9.098 9.098 0 01.015-3.979 9.02 9.02 0 011.71-3.58 8.848 8.848 0 013.066-2.476 8.711 8.711 0 017.64 0 8.848 8.848 0 013.067 2.476 9.02 9.02 0 011.71 3.58A9.098 9.098 0 0128.373 22h6.088c.262 0 .512.105.697.293a1.008 1.008 0 010 1.414.977.977 0 01-.697.293H4.924a.977.977 0 01-.696-.293 1.008 1.008 0 010-1.414.977.977 0 01.696-.293h6.227z"
        fill="url(#prefix__paint0_linear)" />
    <path d="M19.958 36a.996.996 0 01-.433 0h.433z" fill="url(#prefix__paint1_linear)" />
    <path
        d="M9.996 8.764l-.136-.116a.973.973 0 00-1.318.18 1.01 1.01 0 00.062 1.35l1.69 1.716.137.116a.973.973 0 001.318-.18 1.01 1.01 0 00-.062-1.35L9.996 8.764z"
        fill="url(#prefix__paint2_linear)" />
    <path
        d="M30.994 10.04a1.012 1.012 0 00-.178-1.338.975.975 0 00-1.329.062l-1.691 1.716-.114.14a1.012 1.012 0 00.183 1.333.975.975 0 001.323-.059l1.692-1.716.114-.14v.002z"
        fill="url(#prefix__paint3_linear)" />
    <path
        d="M20.716 4.87a1.002 1.002 0 00-.372-.618.974.974 0 00-1.324.122 1.01 1.01 0 00-.257.676v2.426l.016.18c.044.246.176.466.372.618a.974.974 0 001.324-.122 1.01 1.01 0 00.257-.676V5.048l-.016-.18v.002z"
        fill="url(#prefix__paint4_linear)" />
    <path
        d="M16.738 32a.977.977 0 00-.696.293 1.008 1.008 0 000 1.414.977.977 0 00.696.293h5.908a.977.977 0 00.696-.293 1.008 1.008 0 000-1.414.977.977 0 00-.696-.293h-5.908z"
        fill="url(#prefix__paint5_linear)" />
    <path
        d="M9.846 28c0-.265.104-.52.289-.707A.977.977 0 0110.83 27h17.723c.261 0 .512.105.696.293a1.008 1.008 0 010 1.414.977.977 0 01-.696.293H10.83a.977.977 0 01-.696-.293A1.008 1.008 0 019.846 28z"
        fill="url(#prefix__paint6_linear)" />
    <defs>
        <linearGradient id="prefix__paint0_linear" x1="9.319" y1="13.418" x2="14.808" y2="25.968"
            gradientUnits="userSpaceOnUse">
            <stop offset=".102" stop-color="#28C2D1" />
            <stop offset=".925" stop-color="#4931DE" />
        </linearGradient>
        <linearGradient id="prefix__paint1_linear" x1="19.599" y1="36.004" x2="19.601" y2="36.032"
            gradientUnits="userSpaceOnUse">
            <stop offset=".102" stop-color="#28C2D1" />
            <stop offset=".925" stop-color="#4931DE" />
        </linearGradient>
        <linearGradient id="prefix__paint2_linear" x1="8.939" y1="9.142" x2="11.085" y2="11.123"
            gradientUnits="userSpaceOnUse">
            <stop offset=".102" stop-color="#28C2D1" />
            <stop offset=".925" stop-color="#4931DE" />
        </linearGradient>
        <linearGradient id="prefix__paint3_linear" x1="28.135" y1="9.141" x2="30.278" y2="11.12"
            gradientUnits="userSpaceOnUse">
            <stop offset=".102" stop-color="#28C2D1" />
            <stop offset=".925" stop-color="#4931DE" />
        </linearGradient>
        <linearGradient id="prefix__paint4_linear" x1="19.099" y1="4.849" x2="20.92" y2="5.608"
            gradientUnits="userSpaceOnUse">
            <stop offset=".102" stop-color="#28C2D1" />
            <stop offset=".925" stop-color="#4931DE" />
        </linearGradient>
        <linearGradient id="prefix__paint5_linear" x1="17.099" y1="32.362" x2="17.683" y2="34.518"
            gradientUnits="userSpaceOnUse">
            <stop offset=".102" stop-color="#28C2D1" />
            <stop offset=".925" stop-color="#4931DE" />
        </linearGradient>
        <linearGradient id="prefix__paint6_linear" x1="13.209" y1="27.362" x2="13.457" y2="29.649"
            gradientUnits="userSpaceOnUse">
            <stop offset=".102" stop-color="#28C2D1" />
            <stop offset=".925" stop-color="#4931DE" />
        </linearGradient>
    </defs>
</svg>
